X:1
T:Hark, the Gentle Voice
T:Asa Brooks Everett (1828-1875)
T:Hark, the Gentle Voice
T:Public Domain
T:Public Domain
C:Asa Brooks Everett (1828-1875)
Z:Public Domain
%%score ( 1 2 ) ( 3 4 )
L:1/8
M:4/4
K:D
V:1 treble 
V:2 treble 
V:3 bass 
V:4 bass 
V:1
 [DF]2 [DF]2 [DF][DE]D[DE] | [DF]2 [FA]2 [GB]2 [FA]2 | [Fd]2 [GB]2 [FA]2 [DF]2 | %3
w: 1.~Hark! the gen- tle voice of|sus fall- eth Ten-|der- ly up- on|
w: 2.~Take His yoke, for He is|and low- ly; Bear|His bur- den, to|
w: 3.~Then, His lov- ing, ten- der|o- bey- ing, Bear|His yoke, His bur-|
 [DF]2 [CE]2 [CE]4 | [DF]2 [DF]2 [DF][DE]D[DE] | [DF]2 [FA]2 [GB]2 [FA]2 | [Fd]2 [DB]2 [DA]2 (DE) | %7
w: your ear; Sweet|His cry of love and pi-|call- eth; Turn and|list- en, stay and *|
w: Him turn; He|who call- eth is the Mas-|ho- ly: He will|teach if you will *|
w: den take; Find|the yoke His hand is on|lay- ing, Light and|ea- sy for His *|
 [DF]2 [CE]2 D4 ||"^Refrain" [Fd]3 [Fd] [Fd]2 [FA]2 | [GB]2 [GB]2 [GB][Ac][Bd][GB] | %10
w: |||
w: Ye that la-|and are hea- vy-|lad- en, Lean up- on your|
w: |||
 [FA]3 [GB] [FA]2 [DF]2 | [DF]2 [CE]2 [CE]4 |] %12
w: ||
w: dear Lord’s breast; *||
w: ||
V:2
 x6 D x | x8 | x8 | x8 | x6 D x | x8 | x6 D2 | x4 D4 || x8 | x8 | x8 | x8 |] %12
w: Je-||||ty||hear.||||||
w: meek||||ter||learn.|bor|||||
w: voice||||you||sake.||||||
V:3
 [D,A,]2 [D,A,]2 [D,A,][D,G,][D,F,][D,G,] | [D,A,]2 [D,D]2 [D,D]2 [D,D]2 | %2
w: ~ ~ ~ ~ ~ ~|~ ~ ~ ~|
 [D,A,]2 [D,D]2 [D,D]2 [D,A,]2 | [A,,A,]2 [A,,A,]2 [A,,A,]4 | %4
w: ~ ~ ~ ~|~ ~ ~|
 [D,A,]2 [D,A,]2 [D,A,][D,G,][D,F,][D,G,] | [D,A,]2 [D,D]2 [D,D]2 [D,D]2 | %6
w: D.S.~Ye that la- bor and are|hea- vy- la- den,|
 [D,A,]2 (B,C) [F,D]2 [G,B,]2 | A,2 [A,,G,]2 [D,F,]4 || [D,A,]3 [D,A,] [D,A,]2 [D,D]2 | %9
w: Come, and * I will|you rest. *||
 [G,D]2 [G,D]2 [G,D][G,D][G,D][G,D] | [D,D]3 [D,D] [D,D]2 [D,A,]2 | [A,,A,]2 [A,,A,]2 [A,,A,]4 |] %12
w: |||
V:4
 x8 | x8 | x8 | x8 | x8 | x8 | x2 G,2 x4 | A,2 x6 || x8 | x8 | x8 | x8 |] %12
w: ||||||give||||||

